src/assets/github-mark.svg

<?xml version="1.0" standalone="no"?>
<!DOCTYPE svg PUBLIC "-//W3C//DTD SVG 1.0//EN" "http://www.w3.org/TR/2001/REC-SVG-20010904/DTD/svg10.dtd">
<svg xmlns="http://www.w3.org/2000/svg" xmlns:xlink="http://www.w3.org/1999/xlink" id="body_1" width="98" height="96">

<g transform="matrix(1 0 0 1 0 0)">
    <path d="M48.854 0C 21.839 0 0 22 0 49.217C 0 70.973 13.993 89.389 33.405 95.907C 35.832 96.396996 36.721 94.848 36.721 93.545C 36.721 92.404 36.641 88.493 36.641 84.418C 23.050999 87.352 20.220999 78.551 20.220999 78.551C 18.036999 72.847 14.800999 71.381004 14.800999 71.381004C 10.352999 68.366005 15.124999 68.366005 15.124999 68.366005C 20.058998 68.692 22.647999 73.41801 22.647999 73.41801C 27.015 80.91401 34.052 78.796005 36.883 77.492004C 37.287 74.314 38.582 72.114006 39.957 70.892006C 29.118 69.75101 17.714 65.51401 17.714 46.609005C 17.714 41.231007 19.654001 36.831005 22.728 33.409004C 22.243 32.187004 20.544 27.134005 23.214 20.371004C 23.214 20.371004 27.339 19.067003 36.64 25.423004C 40.622086 24.345665 44.72876 23.797615 48.854 23.793005C 52.979 23.793005 57.184 24.364004 61.067 25.423004C 70.369 19.067005 74.494 20.371004 74.494 20.371004C 77.164 27.134005 75.464005 32.187004 74.979004 33.409004C 78.134 36.831005 79.994 41.231003 79.994 46.609005C 79.994 65.51401 68.590004 69.66901 57.670006 70.892006C 59.450005 72.44 60.986008 75.37301 60.986008 80.018005C 60.986008 86.618004 60.906006 91.91501 60.906006 93.54401C 60.906006 94.84801 61.796005 96.397 64.22201 95.908005C 83.63401 89.38801 97.62701 70.97301 97.62701 49.217003C 97.707 22 75.788 0 48.854 0z" stroke="none" fill="#24292F" fill-rule="nonzero" />
</g>
</svg>

<?xml version="1.0" encoding="UTF-8"?>
<svg xmlns="http://www.w3.org/2000/svg" width="98" height="96">
  <path fill-rule="evenodd" clip-rule="evenodd" d="M48.854 0C21.839 0 0 22 0 49.217c0 21.756 13.993 40.172 33.405 46.69 2.427.49 3.316-1.059 3.316-2.362 0-1.141-.08-5.052-.08-9.127-13.59 2.934-16.42-5.867-16.42-5.867-2.184-5.704-5.42-7.17-5.42-7.17-4.448-3.015.324-3.015.324-3.015 4.934.326 7.523 5.052 7.523 5.052 4.367 7.496 11.404 5.378 14.235 4.074.404-3.178 1.699-5.378 3.074-6.6-10.839-1.141-22.243-5.378-22.243-24.283 0-5.378 1.94-9.778 5.014-13.2-.485-1.222-2.184-6.275.486-13.038 0 0 4.125-1.304 13.426 5.052a46.97 46.97 0 0 1 12.214-1.63c4.125 0 8.33.571 12.213 1.63 9.302-6.356 13.427-5.052 13.427-5.052 2.67 6.763.97 11.816.485 13.038 3.155 3.422 5.015 7.822 5.015 13.2 0 18.905-11.404 23.06-22.324 24.283 1.78 1.548 3.316 4.481 3.316 9.126 0 6.6-.08 11.897-.08 13.526 0 1.304.89 2.853 3.316 2.364 19.412-6.52 33.405-24.935 33.405-46.691C97.707 22 75.788 0 48.854 0z" fill="#24292f"></path>
</svg>
